X:10830
T:Minuet,(Melody). BC.50a
M:3/4
L:1/8
Q:100
S:Benjamin Cooke MS.circa 1770, F.Kidson Coll.
R:Minuet
O:England
A:x
Z:vmp.John Bagnal
K:G
G2 B2 d2 | g2 dcBA | G2 GGGG | G4 d2 |
 "tr"e4 d2 | "tr"c4 B2| A2 AAAA |A3 cBA |!
 G2 B2 AG |A2 c2  BA | G2 B2 AG | A2 c2  BA |
 G2 B2 d2 | g2 dcBA | G2 GGGG | G6|!| 
D2 F2 A2 | d2 AGFE | D2 DDDD | D6 |
 G2 B2 d2 | g2 dcBA | G2 GGGG | G4 d2 |!
 e2 cece | d2 BdBd | e2 cece | d2 BdBd |
 "tr" e4 d2 | "tr" c4 B2 | A2AAAA | A3 cBA |!
 G2 B2 AG | A2 c2 BA | G2 B2 AG | A2 c2 BA |
 G2 B2 d2 | g2 dcBA | G2 GGGG | G6 |]
